lib/brands/logos/google-pay-alt.svg

<svg xmlns="http://www.w3.org/2000/svg" fill="none" aria-hidden="true" viewBox="0 0 256 53"><g id="Google Pay alt"><g id="Group"><g id="Vector"><path fill="#5F6368" d="M235.9 22.0758L241.11 34.6586H241.171L246.258 22.0758H249.853L238.886 47.3329H235.474L239.556 38.4976L232.335 22.0758H235.9ZM224.079 21.4969C226.516 21.4969 228.435 22.1367 229.837 23.4468C231.238 24.7569 231.939 26.524 231.939 28.809V39.6248H228.8V37.1874H228.649C227.278 39.1983 225.479 40.2036 223.225 40.2036C221.306 40.2036 219.691 39.6248 218.381 38.4975C217.07 37.3397 216.43 35.9078 216.43 34.2016C216.43 32.4041 217.101 30.9417 218.503 29.8753C219.874 28.809 221.702 28.2606 223.986 28.2606C225.936 28.2606 227.551 28.6262 228.831 29.3269V28.5652C228.831 27.4075 228.374 26.4631 227.46 25.6404C226.547 24.8482 225.479 24.4521 224.261 24.4521C222.433 24.4521 220.971 25.2139 219.904 26.7677L217.01 24.9397C218.594 22.6546 220.971 21.4969 224.079 21.4969ZM207.443 13.9716C209.667 13.9716 211.556 14.7028 213.11 16.1957C214.694 17.6886 215.456 19.4861 215.456 21.5884C215.456 23.7515 214.663 25.5796 213.11 27.0115C211.586 28.474 209.698 29.2052 207.443 29.2052H202.02V39.5944H198.729V13.9716H207.443ZM224.505 30.8502C223.164 30.8502 222.068 31.1854 221.153 31.8252C220.269 32.4955 219.813 33.2876 219.813 34.2322C219.813 35.0852 220.178 35.8164 220.909 36.3648C221.641 36.9437 222.493 37.2179 223.468 37.2179C224.839 37.2179 226.089 36.7 227.185 35.6945C228.282 34.6586 228.8 33.4704 228.8 32.069C227.765 31.2463 226.332 30.8502 224.505 30.8502ZM207.534 17.1707H202.02V26.0975H207.534C208.845 26.0975 209.941 25.671 210.794 24.7874C211.678 23.9039 212.104 22.868 212.104 21.6493C212.104 20.4612 211.678 19.4252 210.794 18.5417C209.941 17.6277 208.845 17.1707 207.534 17.1707Z"/><path fill="#5F6368" d="M152.236 21.5274C154.46 21.5274 156.227 22.5024 157.142 23.5992H157.293V22.0759H161.193V38.8327C161.193 45.7182 157.142 48.5517 152.328 48.5517C147.818 48.5517 145.107 45.505 144.07 43.0372L147.636 41.5442C148.275 43.0676 149.829 44.8652 152.328 44.8652C155.405 44.8652 157.293 42.9458 157.293 39.3812V38.0406H157.142C156.227 39.1679 154.46 40.1732 152.236 40.1732C147.574 40.1732 143.31 36.1211 143.31 30.8808C143.31 25.6101 147.574 21.5274 152.236 21.5274ZM179.048 21.558C183.892 21.558 186.238 25.3969 187.03 27.499L187.457 28.5654L174.996 33.7143C175.94 35.5729 177.433 36.5478 179.504 36.5478C181.577 36.4869 183.039 35.4814 184.105 33.9276L187.273 36.0603C186.238 37.5837 183.77 40.2039 179.504 40.2039C174.203 40.2039 170.273 36.1212 170.273 30.881C170.273 25.3359 174.265 21.558 179.048 21.558ZM87.8306 11.2299C92.2483 11.2299 95.3864 12.9665 97.7324 15.221L94.9294 18.024C93.2232 16.4398 90.9382 15.1906 87.8001 15.1906C81.9809 15.1906 77.4108 19.8825 77.4108 25.7017C77.4108 31.5209 81.9505 36.2129 87.8001 36.2129C91.578 36.2129 93.7412 34.6895 95.1122 33.3185C96.2395 32.1912 96.9707 30.5764 97.2754 28.3523H87.7088V24.3917H101.114C101.267 25.0924 101.327 25.9455 101.327 26.8595C101.327 29.8148 100.505 33.5013 97.9151 36.1214C95.3559 38.772 92.1264 40.1736 87.8306 40.1736C79.8482 40.1736 73.1455 33.684 73.1455 25.7017C73.1455 17.7194 79.8482 11.2299 87.8306 11.2299ZM112.053 21.5274C117.202 21.5274 121.407 25.4577 121.407 30.8503C121.407 36.2125 117.202 40.1732 112.053 40.1732C106.904 40.1732 102.7 36.2125 102.7 30.8503C102.7 25.4577 106.904 21.5274 112.053 21.5274ZM132.404 21.5274C137.553 21.5274 141.757 25.4577 141.757 30.8503C141.757 36.2125 137.553 40.1732 132.404 40.1732C127.255 40.1732 123.05 36.2125 123.05 30.8503C123.05 25.4577 127.255 21.5274 132.404 21.5274ZM168.232 12.2049V39.5948H164.15V12.2049H168.232ZM112.084 25.214C109.281 25.214 106.843 27.499 106.843 30.8503C106.843 34.1712 109.281 36.4868 112.084 36.4868C114.887 36.4868 117.324 34.1712 117.324 30.8503C117.324 27.499 114.887 25.214 112.084 25.214ZM132.404 25.214C129.6 25.214 127.163 27.499 127.163 30.8503C127.163 34.1712 129.6 36.4868 132.404 36.4868C135.207 36.4868 137.644 34.1712 137.644 30.8503C137.644 27.499 135.207 25.214 132.404 25.214ZM152.632 25.1835C149.799 25.1835 147.453 27.5904 147.453 30.8808C147.453 34.1408 149.829 36.4868 152.632 36.4868C155.405 36.4868 157.598 34.1408 157.598 30.8808C157.598 27.5904 155.405 25.1835 152.632 25.1835ZM179.17 25.1227C177.098 25.1227 174.203 26.9811 174.325 30.5762L182.643 27.103C182.186 25.9452 180.815 25.1227 179.17 25.1227Z"/></g><path id="Vector_2" fill="#EA4335" d="M51.5383 12.6466C46.6087 9.801 40.3051 11.4919 37.4564 16.4215L30.2754 28.8611C28.1975 32.4533 30.8725 33.7085 33.8552 35.4969L40.7651 39.485C43.105 40.8347 46.0938 40.0334 47.4435 37.6966L54.8257 24.9126C57.3057 20.6168 55.8341 15.1267 51.5383 12.6466Z"/><path id="Vector_3" fill="#FBBC04" d="M43.4129 17.7953L36.503 13.8072C32.6885 11.6897 30.5284 11.5496 28.9624 14.0387L18.7712 31.6883C15.9256 36.6148 17.6195 42.9154 22.5461 45.755C26.8419 48.2349 32.3321 46.7634 34.8121 42.4675L45.1983 24.4767C46.5541 22.1369 45.7528 19.145 43.4129 17.7953Z"/><path id="Vector_4" fill="#34A853" d="M44.7428 8.72226L39.8894 5.9193C34.5212 2.8208 27.657 4.65796 24.5585 10.0263L15.3178 26.0306C13.9529 28.3918 14.7633 31.4141 17.1246 32.776L22.5599 35.9141C25.244 37.4649 28.6745 36.5448 30.2254 33.8606L40.7821 15.5774C42.9697 11.7903 47.8109 10.4924 51.5979 12.6799L44.7428 8.72226Z"/><path id="Vector_5" fill="#4285F4" d="M25.8713 14.605L20.6249 11.5827C18.2849 10.2361 15.2962 11.0343 13.9465 13.3681L7.652 24.2448C4.5535 29.5978 6.39066 36.4469 11.759 39.5362L15.7532 41.8364L20.5974 44.6272L22.6997 45.8367C18.9674 43.3385 17.7823 38.3327 20.0642 34.3903L21.6942 31.5751L27.6627 21.2621C29.0094 18.9344 28.2081 15.9517 25.8713 14.605Z"/></g></g></svg>

<svg xmlns="http://www.w3.org/2000/svg" fill="none" aria-hidden="true" viewBox="0 0 256 53"><path fill="#5F6368" d="m235.899 22.076 5.211 12.583h.061l5.087-12.583h3.595l-10.968 25.257h-3.411l4.082-8.835-7.221-16.422h3.564Zm-11.82-.58c2.437 0 4.356.64 5.757 1.95 1.402 1.31 2.103 3.078 2.103 5.363v10.816H228.8v-2.438h-.151c-1.371 2.011-3.17 3.017-5.424 3.017-1.919 0-3.534-.58-4.844-1.706-1.311-1.158-1.951-2.59-1.951-4.296 0-1.798.671-3.26 2.073-4.327 1.371-1.066 3.199-1.614 5.483-1.614 1.95 0 3.565.365 4.845 1.066v-.762c0-1.158-.457-2.102-1.371-2.925a4.734 4.734 0 0 0-3.199-1.188c-1.828 0-3.29.762-4.357 2.316l-2.894-1.828c1.584-2.285 3.961-3.443 7.069-3.443Zm-16.636-7.524c2.224 0 4.113.73 5.667 2.224 1.584 1.493 2.346 3.29 2.346 5.392 0 2.163-.793 3.992-2.346 5.424-1.524 1.462-3.412 2.193-5.667 2.193h-5.423v10.39h-3.291V13.971h8.714Zm17.062 16.878c-1.341 0-2.438.335-3.352.975-.884.67-1.34 1.463-1.34 2.407 0 .853.365 1.584 1.096 2.133.731.579 1.584.853 2.559.853 1.371 0 2.621-.518 3.717-1.524 1.097-1.035 1.615-2.224 1.615-3.625-1.035-.823-2.468-1.219-4.295-1.219Zm-16.971-13.68h-5.514v8.927h5.514c1.311 0 2.407-.426 3.26-1.31.884-.883 1.31-1.919 1.31-3.138 0-1.188-.426-2.224-1.31-3.107-.853-.914-1.949-1.371-3.26-1.371Zm-55.299 4.357c2.225 0 3.992.975 4.906 2.072h.152v-1.523h3.9v16.757c0 6.885-4.052 9.719-8.865 9.719-4.51 0-7.222-3.047-8.258-5.515l3.566-1.493c.639 1.524 2.193 3.321 4.692 3.321 3.077 0 4.965-1.92 4.965-5.484v-1.34h-.152c-.914 1.127-2.681 2.132-4.906 2.132-4.661 0-8.926-4.052-8.926-9.292 0-5.27 4.265-9.354 8.926-9.354Zm26.813.031c4.844 0 7.19 3.839 7.982 5.941l.427 1.066-12.461 5.15c.944 1.858 2.437 2.833 4.508 2.833 2.073-.061 3.535-1.067 4.601-2.62l3.168 2.132c-1.035 1.524-3.503 4.144-7.769 4.144-5.301 0-9.231-4.083-9.231-9.323 0-5.545 3.992-9.323 8.775-9.323ZM87.83 11.23c4.418 0 7.556 1.736 9.902 3.991l-2.803 2.803c-1.706-1.584-3.99-2.833-7.129-2.833-5.82 0-10.39 4.691-10.39 10.51 0 5.82 4.54 10.512 10.39 10.512 3.778 0 5.941-1.523 7.312-2.895 1.127-1.127 1.859-2.742 2.163-4.966H87.71v-3.96h13.405c.152.7.213 1.553.213 2.468 0 2.955-.822 6.641-3.412 9.261-2.56 2.651-5.789 4.053-10.085 4.053-7.982 0-14.685-6.49-14.685-14.472 0-7.983 6.703-14.472 14.686-14.472Zm24.223 10.297c5.149 0 9.354 3.93 9.354 9.323 0 5.362-4.205 9.323-9.354 9.323-5.149 0-9.353-3.96-9.353-9.323 0-5.392 4.204-9.323 9.353-9.323Zm20.351 0c5.149 0 9.353 3.93 9.353 9.323 0 5.362-4.204 9.323-9.353 9.323-5.15 0-9.354-3.96-9.354-9.323 0-5.392 4.204-9.323 9.354-9.323Zm35.828-9.322v27.39h-4.082v-27.39h4.082Zm-56.148 13.009c-2.803 0-5.241 2.285-5.241 5.636 0 3.321 2.438 5.637 5.241 5.637 2.802 0 5.24-2.316 5.24-5.637 0-3.351-2.438-5.636-5.24-5.636Zm20.32 0c-2.804 0-5.241 2.285-5.241 5.636 0 3.321 2.437 5.637 5.241 5.637 2.803 0 5.24-2.316 5.24-5.637 0-3.351-2.437-5.636-5.24-5.636Zm20.228-.03c-2.834 0-5.18 2.406-5.18 5.697 0 3.26 2.377 5.606 5.18 5.606 2.773 0 4.966-2.346 4.966-5.606 0-3.29-2.193-5.698-4.966-5.698Zm26.538-.061c-2.072 0-4.967 1.858-4.845 5.453l8.318-3.473c-.457-1.158-1.828-1.98-3.473-1.98Z"/><path fill="#EA4335" d="M51.538 12.647c-4.93-2.846-11.233-1.155-14.082 3.775l-7.18 12.44c-2.078 3.591.596 4.847 3.58 6.635l6.91 3.988a4.89 4.89 0 0 0 6.678-1.788l7.382-12.784a8.978 8.978 0 0 0-3.288-12.266Z"/><path fill="#FBBC04" d="m43.413 17.795-6.91-3.988c-3.815-2.117-5.975-2.257-7.54.232L18.77 31.689c-2.845 4.926-1.152 11.226 3.775 14.066a8.978 8.978 0 0 0 12.266-3.288l10.386-17.99a4.884 4.884 0 0 0-1.785-6.682Z"/><path fill="#34A853" d="M44.743 8.722 39.89 5.92c-5.369-3.098-12.233-1.261-15.331 4.107l-9.241 16.005a4.937 4.937 0 0 0 1.807 6.745l5.435 3.138a5.61 5.61 0 0 0 7.666-2.053l10.556-18.284a7.916 7.916 0 0 1 10.816-2.897l-6.855-3.958Z"/><path fill="#4285F4" d="m25.871 14.605-5.246-3.022a4.894 4.894 0 0 0-6.678 1.785L7.652 24.245c-3.099 5.353-1.261 12.202 4.107 15.291l3.994 2.3 4.844 2.791 2.103 1.21c-3.733-2.498-4.918-7.504-2.636-11.447l1.63-2.815 5.969-10.313a4.87 4.87 0 0 0-1.792-6.657Z"/></svg>
